X:1
T:Pour ung plaisir
T:Pour ung plaisir 3v
T:Tielman Susato
T:Source : Le premier Livre des Chansons à 3 parties---Anvers---T.Susato---1544. Editor : André Vierendeels (07/02/15).
T:Notes : Original clefs : C1, C3, C4 Original note values have been halved Editorial accidentals above the staff Square bracket indicates ligature Notice above the S voice: "Puis chanterez tous trois ensamble" See also the "Resonce" Si de present"(Susato)
C:Tielman Susato
%%score [ 1 [ 2 3 ] ]
L:1/8
Q:1/4=84
M:4/4
K:C
V:1 treble nm="Superius" snm="S"
V:2 treble-8 nm="Tenor 1" snm="T 1"
V:3 treble-8 nm="Tenor 2" snm="T 2"
V:1
 z8 | z4 G2 GA | BGAB c2 BA | G2 B2 A4 | G4 z2 c2- | c2 B2 A2 G2- | GF ED C2 c2 | B2 A3 G G2- | %8
w: |Pour ung plai-|sir qui si peu du- * *||re, ien|_ ay souf- fert|_ _ _ _ _ tant|de tra- * *|
 G2 F2 G4 | z4 G2 GA | B3 G AB c2- | c2 BA G2 c2 | B2 A2 GF ED | C2 c4 B2 | A2 G3 E F2- | %15
w: * * vaux,|ien ay souf-|fert dou- leur trop du-|* * * re, ien|ay re- ceu _ _ _|_ mil- *||
 FE ED/C/ D4 | E4 z2 C2 | G3 E F2 G2 | A2 A2 G4 | z2 G2 c2 B2 | c2 d2 e3 d | cB A3 G FE | %22
w: * * * * * le|maulx, ien|ay heu de trop|grans as- saulx,|ien ay heu|de trop grans _|_ _ as- * * *|
 D2 d3 c c2- | c2 B2 c4 | e2 dB ccBG | A4 G2 c2 | BGAA GE F2 | E4 z2 C2 | CD EF G2 G2 | %29
w: saulx, top _ grans|_ as- saulx,|or dieu me dont bon- ne'a- van-|tu- re, or|dieu me dont bon- ne'a- van- tu-|re, for-|tu- * * * * ne'a|
 G2 G2 AB cA | Bc d3 c c2- | c2 B2 c4- | c4 e2 dB | ccBG A4 | G2 c2 BGAA | GE F2 E4 | z2 C2 CD EF | %37
w: faict sur moy _ _ _|_ _ _ _ ses|_ _ faulx,|_ or dieu me|dont bon- ne'a- van- tu-|re, or dieu me dont bon-|ne'a- ven- tu- re,|for- tu- * * *|
 G2 G2 G2 G2 | AB cA Bc d2- | d2 c4 B2 | c8 |] %41
w: * ne'a faict sur|moy _ _ _ _ _ _|_ _ ses|saulx.|
V:2
 z4 G2 GA | BGAB c2 BA | G2 c2 cd e2- | ecde f4 | e2 g4 f2 | e2 d3 c BA | G2 g3 f e2 | d3 c B2 AG | %8
w: Pour ung plai-|sir qui si peu du- * *|re, pour ung plai- sir|_ qui si peu du-|re, ien- ay|re- ceu _ _ _|_ pai- * *|n'et _ _ tra- *|
 A4 G4 | c2 cd e3 c | d2 e2 f2 ed | c2 z c cdec | de f2 e2 g2- | g2 f2 e2 d2- | dcBA G2 d2- | %15
w: * vaux,|ien ay souf- fert dou-|leur trop du- * *|re, ien ay souf- fert dou-|leur trop du- re, ien|_ ay re- ceu|_ _ _ _ _ mil-|
 dc c4 B2 | c8 | z2 G2 d2 B2 | c2 d2 e3 d | c4 c2 g2 | e2 f2 g2 a2- | agfe d3 c | BA B4 c2 | %23
w: * * * le|maulx,|ien ay heu|de trop grans as-|saulx, ien ay|heu de troo grans|_ _ _ _ _ _||
 d4 c2 f2 | ecdd ef g2 | d2 f2 e3 c | defd e2 d2 | z2 c2 cdef | g2 c2 c2 BA | G2 c3 d ef | %30
w: as- sailx, or|dieu me dont bon- ne'a- van- tu-|re, or dieu me|dont bon- ne'a- van- tu- re,|for- tu- * * *|* ne'a faict _ _|_ sur _ _ _|
 g2 f3 e dc | d4 c4 | z2 f2 ecdd | ef g2 d2 f2 | e3 c defd | e2 d2 z2 c2 | cdef g2 c2 | %37
w: _ moy _ _ _|ses faulx,|or dieu me dont bon-|ne'a- van- tu- re, or|dieu me dont bon- ne'a- van-|tu- re, for-|tu- * * * * *|
 c2 BA G2 c2- | cdef g4 | f2 e2 d4 | c8 |] %41
w: ne'a faict _ _ sur|_ _ _ _ moy|_ _ ses|saulx.|
V:3
 C2 CD E3 C | DE F2 C2 c2 | B2 A4 GF | E2 G2 F2 D2 | E4 A4 | G2 G2 F2 G2 | E2 C4 C2 | D4 E4 | %8
w: Pour ung plai- sir qui|si peu du- re, j'en|ay re- ceu pai-|n'et tra _ _|_ _|vaulx, j'en ay re-|ceu pa- n'et|tra- *|
 D2 D2 EFGE | F2 ED C2 C2 | G4 F3 G | AB c3 B A2 | G2 D2 E4 | A4 G2 G2 | F2 G2 E2 D2- | %15
w: vaulx, j'en ay souf- fert dou-|leur, _ _ _ dou-|leur trop _|_ _ _ _ _|* * du-|* re, j'en|ay re- ceu mil-|
 D2 E2 F2 G2 | C2 C2 F4 | E2 C2 D2 G2 | F4 E2 C2- | C2 c2 A2 G2 | A2 d2 c4 | A4 z2 d2- | %22
w: * le maulx, j'en|ay re- ceu|de trop grans as-|* * saulx,|_ trop- grans _|_ _ as-|saulx, grans|
 dc BA G2 A2 | G4 z2 F2 | ccBG cAGE | FF D2 E2 A2 | GGFF GA D2 | A3 B c4 | C2 CD EF GA | B2 c2 A4 | %30
w: _ _ _ _ _ as-|saulx, or|dieu me dont bon- ne'a- van- tu- re,|a- van- tu- re, or|dieu me dont bon- ne'a- van- tu-|* * re,|for- tu- * * * * *||
 G2 D4 E2 | F2 G2 C2 c2 |"^b" ccBG cA GE | A2 G2 z2 F2 | c2 A2 G2 F2 | GA D2 A3 B | c4 C2 CD | %37
w: ne'a faict sur|moy ses faulx, or|dieu me dont bon- ne'a- van- tu- *|* re, or|dieu me dont bon-|ne'a- ven tu- re, _|_ for- tu- *|
 EF G4 E2 | A4 G3 A | _B2 c2 G4 | C8 |] %41
w: * * * ne'a|faict sur _|_ moy ses|saulx.|

